client/public/img/game/fall/particles/birch_tree_particle.svg

<?xml version="1.0" encoding="UTF-8" standalone="no"?>
<svg
   width="69"
   height="113.617"
   viewBox="0 0 69 113.61702"
   fill="none"
   version="1.1"
   id="svg52"
   xmlns="http://www.w3.org/2000/svg"
   xmlns:svg="http://www.w3.org/2000/svg"
   xmlns:rdf="http://www.w3.org/1999/02/22-rdf-syntax-ns#"
   xmlns:cc="http://creativecommons.org/ns#"
   xmlns:dc="http://purl.org/dc/elements/1.1/">
  <defs
     id="defs56" />
  <path
     style="color:#000000;fill:#cccccc;stroke-width:5.83269;stroke-linejoin:round;stroke-miterlimit:16;-inkscape-stroke:none"
     d="M 26.26145,60.058419 22.965301,32.101824 43.067702,2.9149961 38.611818,43.848561 49.766674,90.033559 40.518229,110.70181 Z"
     id="path865" />
  <path
     id="path-1-239"
     style="fill:#4d4d4d;fill-opacity:1;fill-rule:nonzero;stroke:none;stroke-width:5.4734"
     d="m 35.837653,58.341624 c -0.77969,0.788905 -0.912756,2.072005 -0.43301,3.052007 0.243008,0.718245 0.185138,1.49866 0.06702,2.233988 -0.121066,0.325475 -0.46135,0.495634 -0.682,0.750037 -0.673206,0.71748 -1.686907,1.25362 -1.912026,2.284003 -0.0835,0.88289 0.757838,1.515563 1.501894,1.793238 0.563723,0.259414 1.236999,0.25892 1.758106,0.594757 0.660646,0.476159 1.525983,0.5594 2.291866,0.802749 0.869233,0.240107 1.840519,0.37288 2.503804,1.045557 0.332808,0.354026 1.047743,0.30335 1.291246,0.539122 0.127309,-0.153846 0.443447,-0.236761 0.451379,-0.435405 -0.854749,-4.46737 -1.709496,-8.934742 -2.564246,-13.402111 -0.379337,0.211336 -0.758671,0.42267 -1.138009,0.634007 -0.05502,0.313322 -0.812028,-0.115114 -1.079745,-0.211611 -0.688843,-0.387342 -1.511646,-0.240064 -2.056251,0.319716 z m 3.136025,-0.108003 c -0.05663,0.01231 -0.104956,0.07368 0,0 z" />
  <path
     style="color:#000000;fill:#333333;stroke-width:0.946934;stroke-linejoin:round;stroke-miterlimit:16;-inkscape-stroke:none"
     d="M 42.819174,0.01057308 A 2.9166356,2.9166356 0 0 0 40.666379,1.2608219 L 20.564375,30.447475 a 2.9166356,2.9166356 0 0 0 -0.495662,1.99559 l 3.295775,27.956748 a 2.9166356,2.9166356 0 0 0 0.09062,0.449425 l 14.255797,50.642482 a 2.9166356,2.9166356 0 0 0 5.468914,0.40133 l 9.249256,-20.667943 a 2.9166356,2.9166356 0 0 0 0.172003,-1.875374 L 41.565226,43.658316 45.966991,3.2305188 A 2.9166356,2.9166356 0 0 0 42.819174,0.01057308 Z M 38.91862,14.079572 35.71347,43.53255 a 2.9166356,2.9166356 0 0 0 0.06289,1.000569 L 46.697535,89.751071 41.143546,102.16294 29.12932,59.48617 25.990751,32.8518 Z"
     id="path867" />
  <path
     d="M 16.375341,44.789971 C 23.627083,39.818567 34.138844,23.80347 22.943662,20.267378 11.480255,17.732294 12.57553,36.857048 16.369738,44.78885 l -0.0012,0.0035 c 0.0022,0 0.0057,-0.0022 0.0066,-0.0022 z"
     fill="#5f926a"
     id="path46-6"
     style="fill:#f6c626;fill-opacity:0.89803922;stroke-width:1.12222" />
  <path
     d="M 8.3803664e-5,6.3745557 0.00795282,6.3789307 C 3.795414,17.188084 20.359281,35.812334 28.601935,22.884438 35.676359,9.2820903 11.265987,4.2500882 0.01131586,6.3733151 l -0.00786902,-0.00438 c 0.00108897,0.00108 0.00218741,0.00327 0.00218741,0.00438 -0.00218741,0 -0.00327638,0.00108 -0.00563425,0.00108 z"
     fill="#587e60"
     id="path48-7"
     style="fill:#ffe436;fill-opacity:0.89803922;stroke-width:1.12222" />
  <metadata
     id="metadata3223">
    <rdf:RDF>
      <cc:Work
         rdf:about="">
        <dc:creator>
          <cc:Agent>
            <dc:title>Radians</dc:title>
          </cc:Agent>
        </dc:creator>
      </cc:Work>
    </rdf:RDF>
  </metadata>
  <path
     d="M 68.997824,61.927965 C 63.946391,54.559486 47.673485,43.878504 44.080471,55.253915 41.504576,66.901858 60.937198,65.788946 68.996686,61.933664 L 69,61.9348 C 69,61.9326 68.9978,61.929 68.9978,61.928 Z"
     fill="#5f926a"
     id="path46"
     style="fill:#f6c626;fill-opacity:0.89803922;stroke-width:1.14027" />
  <path
     d="m 60.855098,26.191649 -0.0044,0.008 C 49.867496,30.048086 30.943436,46.878588 44.079442,55.253931 57.900759,62.442243 63.013765,37.638914 60.856359,26.203067 l 0.0044,-0.008 c -0.0012,0.0012 -0.0035,0.0022 -0.0044,0.0022 0,-0.0022 -0.0012,-0.0034 -0.0012,-0.0058 z"
     fill="#587e60"
     id="path48"
     style="fill:#ffe436;fill-opacity:0.89803922;stroke-width:1.14027" />
  <path
     d="m 38.721158,35.26598 0.0012,0.0044 c -3.299994,6.517823 -4.410621,22.162438 5.356999,19.983367 9.549834,-2.996647 0.765128,-15.990116 -5.352464,-19.985653 l -0.0012,-0.0033 c 0.0012,-0.0012 0,0 0,0 -0.0012,-0.0012 -0.0035,0.0022 -0.0044,0.0012 z"
     fill="#77a37a"
     id="path50"
     style="fill:#f6c626;fill-opacity:0.89803922;stroke-width:1.14027" />
</svg>

<svg xmlns="http://www.w3.org/2000/svg" width="69" height="113.617" fill="none"><path d="m26.261 60.058-3.296-27.956L43.068 2.915l-4.456 40.934 11.155 46.185-9.249 20.668Z" style="color:#000;fill:#ccc;stroke-width:5.83269;stroke-linejoin:round;stroke-miterlimit:16;-inkscape-stroke:none"/><path d="M35.838 58.342c-.78.789-.913 2.072-.433 3.052.243.718.185 1.498.067 2.234-.121.325-.462.495-.682.75-.674.717-1.687 1.253-1.912 2.284-.084.883.757 1.515 1.502 1.793.563.26 1.237.259 1.758.595.66.476 1.526.56 2.292.802.869.24 1.84.373 2.503 1.046.333.354 1.048.303 1.292.54.127-.155.443-.238.45-.436L40.113 57.6q-.57.316-1.138.634c-.055.313-.812-.116-1.08-.212-.689-.387-1.512-.24-2.056.32m3.136-.108c-.057.012-.105.073 0 0" style="fill:#4d4d4d;fill-opacity:1;fill-rule:nonzero;stroke:none;stroke-width:5.4734"/><path d="M42.82.01a2.92 2.92 0 0 0-2.154 1.25L20.564 30.448a2.92 2.92 0 0 0-.495 1.996L23.364 60.4a3 3 0 0 0 .091.45l14.256 50.642a2.917 2.917 0 0 0 5.469.401l9.25-20.668a2.9 2.9 0 0 0 .171-1.875L41.565 43.658l4.402-40.427A2.917 2.917 0 0 0 42.819.01m-3.901 14.07-3.206 29.453a2.9 2.9 0 0 0 .063 1l10.922 45.218-5.554 12.412-12.015-42.677-3.138-26.634Z" style="color:#000;fill:#333;stroke-width:.946934;stroke-linejoin:round;stroke-miterlimit:16;-inkscape-stroke:none"/><path fill="#5f926a" d="M16.375 44.79c7.252-4.971 17.764-20.987 6.569-24.523-11.464-2.535-10.368 16.59-6.574 24.522l-.001.003z" style="fill:#f6c626;fill-opacity:.89803922;stroke-width:1.12222"/><path fill="#587e60" d="m0 6.375.008.004c3.787 10.81 20.351 29.433 28.594 16.505C35.676 9.282 11.266 4.25.012 6.374l-.009-.005.003.004z" style="fill:#ffe436;fill-opacity:.89803922;stroke-width:1.12222"/><path fill="#5f926a" d="M68.998 61.928c-5.052-7.369-21.325-18.05-24.918-6.674-2.575 11.648 16.857 10.535 24.917 6.68H69z" style="fill:#f6c626;fill-opacity:.89803922;stroke-width:1.14027"/><path fill="#587e60" d="m60.855 26.192-.004.008c-10.984 3.848-29.908 20.679-16.772 29.054 13.822 7.188 18.935-17.615 16.777-29.05l.005-.009-.005.002z" style="fill:#ffe436;fill-opacity:.89803922;stroke-width:1.14027"/><path fill="#77a37a" d="m38.721 35.266.001.004c-3.3 6.518-4.41 22.163 5.357 19.984 9.55-2.997.765-15.99-5.352-19.986l-.001-.003q-.003 0-.005.001z" style="fill:#f6c626;fill-opacity:.89803922;stroke-width:1.14027"/></svg>
